X:334
T:Locheil's Welcome To Glasgow 
C:Joe Buchanan's Scottish Tome - Page 115.2
I:115 2
R:March
Z:Carl Allison
L:1/8
M:6/8
K:A
e | "A"A>AA A>Bc |"A"a2 e f>ec | "Bm"B>BB B>ce | "Bm"f>ea "E7"f>ec |
| "A"A>AA A>Bc | "A"a2 e f>ec |"D" e>fe "E7"e>ca | "A"A>BA A2 :|
d |"A" c>ee "A7"c>ee |"D" f>df f>ed |"A" c<ee c<ee |"F#m" A>Bc "E7"c>BA  |
|"A" c>ee "A7"c>ee |"D" f>df f>ed |"A" e>fe "E7"e>ca | "A"A>BA A2 :|

